static/images/user-logos/aprila.svg

<svg height="26" viewBox="0 0 140 26" width="140" xmlns="http://www.w3.org/2000/svg"><g fill="none"><g fill="#3b2c7c" transform="translate(28.856683 3.607085)"><path d="m11.5539452 17.3703704h-1.83735905c-.19162641 0-.33816425-.1465379-.33816425-.3381643v-1.0483092c-.78904992 1.0257649-1.98389694 1.6795492-3.61835749 1.6795492-3.22383253 0-5.76006441-2.5362319-5.76006441-6.0644123 0-3.52818034 2.53623188-6.06441222 5.76006441-6.06441222 1.63446055 0 2.82930757.6763285 3.61835749 1.69082125v-1.02576489c0-.19162641.14653784-.33816425.33816425-.33816425h1.83735905c.1916265 0 .3381643.14653784.3381643.33816425v10.84380036c0 .1803542-.1465378.3268921-.3381643.3268921zm-8.97262475-5.7487923c0 2.0177134 1.30756844 3.6859903 3.47181965 3.6859903 2.08534621 0 3.47181964-1.5893719 3.47181964-3.6859903 0-2.1078905-1.39774557-3.68599034-3.47181964-3.68599034-2.15297907-.01127214-3.47181965 1.65700483-3.47181965 3.68599034z"/><path d="m26.2753623 11.6215781c0 3.5281804-2.5362319 6.0644122-5.7600644 6.0644122-1.6344605 0-2.8180354-.6650563-3.6070853-1.6682769v5.8389694c0 .1916264-.1465379.3381642-.3381643.3381642h-1.8373591c-.1916264 0-.3381642-.1465378-.3381642-.3381642v-15.65700486c0-.19162641.1465378-.33816425.3381642-.33816425h1.8373591c.1916264 0 .3381643.14653784.3381643.33816425v1.03703704c.7890499-1.01449276 1.9726248-1.66827698 3.6070853-1.66827698 3.2238325-.01127214 5.7600644 2.52495975 5.7600644 6.0531401zm-9.5362319 0c0 2.1078905 1.3977456 3.6859903 3.4718197 3.6859903 2.1642512 0 3.4718196-1.6682769 3.4718196-3.6859903 0-2.01771337-1.3075684-3.68599034-3.4718196-3.68599034-2.0740741-.01127214-3.4718197 1.57809984-3.4718197 3.68599034z"/><path d="m35.6425121 6.17713366-.4396135 1.80354267c-.0450886.20289855-.2592593.30434782-.4508857.23671497-.4847021-.18035426-1.0708535-.2705314-1.5555556-.2705314-1.6006441 0-2.7391304 1.12721417-2.7391304 3.0885668v5.9967794c0 .1916264-.1465379.3381643-.3381643.3381643h-1.8373591c-.1916264 0-.3381642-.1465379-.3381642-.3381643v-10.83252816c0-.19162641.1465378-.33816425.3381642-.33816425h1.8148149c.1916264 0 .3381642.14653784.3381642.33816425v.95813204c.7552335-1.09339774 1.9388084-1.60064412 3.3478261-1.60064412.6312399 0 1.1497584.06763285 1.6344605.21417069.15781.05636071.2592593.23671498.2254429.40579711z"/><path d="m39.8582931 1.88244767c0 1.00322061-.7777778 1.7584541-1.7809984 1.7584541s-1.7584541-.75523349-1.7584541-1.7584541c0-1.00322062.7552335-1.78099839 1.7584541-1.78099839s1.7809984.77777777 1.7809984 1.78099839zm-.8454107 15.48792273h-1.8486312c-.1916264 0-.3381642-.1465379-.3381642-.3381643v-10.83252816c0-.19162641.1465378-.33816425.3381642-.33816425h1.8486312c.1916265 0 .3381643.14653784.3381643.33816425v10.84380036c0 .1803542-.1465378.3268921-.3381643.3268921z"/><path d="m44.0402576 17.3703704h-1.8486312c-.1916264 0-.3381642-.1465379-.3381642-.3381643v-16.626409c0-.19162641.1465378-.33816425.3381642-.33816425h1.8486312c.1916265 0 .3381643.14653784.3381643.33816425v16.6376812c0 .1803542-.1465378.3268921-.3381643.3268921z"/><path d="m57.6006441 17.3703704h-1.8373591c-.1916264 0-.3381642-.1465379-.3381642-.3381643v-1.0483092c-.7890499 1.0257649-1.983897 1.6795492-3.6183575 1.6795492-3.2238325 0-5.7600644-2.5362319-5.7600644-6.0644123 0-3.52818034 2.5362319-6.06441222 5.7600644-6.06441222 1.6344605 0 2.8293076.6763285 3.6183575 1.69082125v-1.02576489c0-.19162641.1465378-.33816425.3381642-.33816425h1.8373591c.1916264 0 .3381643.14653784.3381643.33816425v10.84380036c0 .1803542-.1465379.3268921-.3381643.3268921zm-8.9613526-5.7487923c0 2.0177134 1.3075684 3.6859903 3.4718196 3.6859903 2.0853462 0 3.4718197-1.5893719 3.4718197-3.6859903 0-2.1078905-1.3977456-3.68599034-3.4718197-3.68599034-2.1642512-.01127214-3.4718196 1.65700483-3.4718196 3.68599034z"/></g><circle cx="4.993559" cy="16.389694" fill="#ff7e69" r="4.89211"/><path d="m8.36392915.86795491c-1.90499195 1.34138486-2.35587762 3.95652174-1.01449276 5.86151369l1.1610306 1.65700483 7.82286631 11.11433177c1.3413849 1.9049919 3.9565218 2.3558776 5.8615137 1.0144927 1.904992-1.3413849 2.3558776-3.9565217 1.0144928-5.8615137l-8.983897-12.77133653c-1.3413848-1.89371981-3.9677938-2.35587762-5.86151365-1.01449276z" fill="#3b2c7c"/><g fill="#ff7e69"><path d="m101.178744 15.2286634c0 3.5281804-2.5362319 6.0644123-5.7600645 6.0644123-1.6344605 0-2.8180354-.6650564-3.6070853-1.668277v1.037037c0 .1916265-.1465378.3381643-.3381642.3381643h-1.8373591c-.1916265 0-.3381643-.1465378-.3381643-.3381643v-16.64895325c0-.19162641.1465378-.33816425.3381643-.33816425h1.8373591c.1916264 0 .3381642.14653784.3381642.33816425v6.83091785c.7890499-1.01449273 1.9726248-1.66827695 3.6070853-1.66827695 3.2238326-.01127214 5.7600645 2.52495975 5.7600645 6.05314005zm-9.5362319 0c0 2.1078905 1.3977455 3.6859904 3.4718196 3.6859904 2.1642512 0 3.4718197-1.668277 3.4718197-3.6859904 0-2.0177133-1.3075685-3.6859903-3.4718197-3.6859903-2.0740741-.0112721-3.4718196 1.5780998-3.4718196 3.6859903z"/><path d="m113.837359 20.9774557h-1.837359c-.191626 0-.338164-.1465378-.338164-.3381642v-1.0483092c-.78905 1.0257649-1.983897 1.6795491-3.618358 1.6795491-3.223832 0-5.760064-2.5362319-5.760064-6.0644122 0-3.5281804 2.536232-6.06441228 5.760064-6.06441228 1.634461 0 2.829308.67632851 3.618358 1.69082128v-1.02576491c0-.19162641.146538-.33816426.338164-.33816426h1.837359c.191627 0 .338164.14653785.338164.33816426v10.84380031c0 .1803543-.146537.3268921-.338164.3268921zm-8.961353-5.7487923c0 2.0177134 1.307569 3.6859904 3.47182 3.6859904 2.085346 0 3.47182-1.589372 3.47182-3.6859904 0-2.1078905-1.397746-3.6859903-3.47182-3.6859903-2.164251-.0112721-3.47182 1.6570048-3.47182 3.6859903z"/><path d="m127.386473 13.7407407v6.8985508c0 .1916264-.146537.3381642-.338164.3381642h-1.848631c-.191626 0-.338164-.1465378-.338164-.3381642v-6.0644123c0-1.9388083-1.003221-3.020934-2.68277-3.020934-1.623188 0-2.987118 1.0708535-2.987118 3.0434783v6.041868c0 .1916264-.146537.3381642-.338164.3381642h-1.848631c-.191626 0-.338164-.1465378-.338164-.3381642v-10.83252821c0-.19162641.146538-.33816426.338164-.33816426h1.826087c.191626 0 .338164.14653785.338164.33816426v1.07085341c.924316-1.3639291 2.355878-1.70209335 3.539453-1.70209335 2.750402-.01127214 4.677938 1.87117555 4.677938 4.56521735z"/><path d="m132.075684 13.84219h1.26248l3.697263-4.26086955c.067633-.07890499.15781-.11272142.259259-.11272142h2.254428c.293076 0 .450886.3494364.247987.56360707l-4.31723 4.8582931 4.429952 5.5458937c.180354.2254428.022544.552335-.259259.552335h-2.322062c-.101449 0-.202898-.0450886-.270531-.1239936l-3.731079-4.7230274h-1.251208v4.5201288c0 .1916265-.146537.3381643-.338164.3381643h-1.848631c-.191627 0-.338164-.1465378-.338164-.3381643v-16.64895325c0-.19162641.146537-.33816425.338164-.33816425h1.848631c.191627 0 .338164.14653784.338164.33816425z"/></g></g></svg>

<?xml version="1.0" encoding="UTF-8"?>
<svg width="140px" height="26px" viewBox="0 0 140 26" version="1.1" xmlns="http://www.w3.org/2000/svg" xmlns:xlink="http://www.w3.org/1999/xlink">
    <!-- Generator: sketchtool 50 (54983) - http://www.bohemiancoding.com/sketch -->
    <title>A12349FF-76A9-488B-9A77-61F9737E4ABB</title>
    <desc>Created with sketchtool.</desc>
    <defs></defs>
    <g id="Fakturasalg" stroke="none" stroke-width="1" fill="none" fill-rule="evenodd">
        <g id="aprila-4" transform="translate(-70.000000, -26.000000)" fill-rule="nonzero">
            <g id="logo" transform="translate(70.000000, 26.000000)">
                <g id="Group" transform="translate(28.856683, 3.607085)" fill="#3B2C7C">
                    <path d="M11.5539452,17.3703704 L9.71658615,17.3703704 C9.52495974,17.3703704 9.3784219,17.2238325 9.3784219,17.0322061 L9.3784219,15.9838969 C8.58937198,17.0096618 7.39452496,17.6634461 5.76006441,17.6634461 C2.53623188,17.6634461 0,15.1272142 0,11.5990338 C0,8.07085346 2.53623188,5.53462158 5.76006441,5.53462158 C7.39452496,5.53462158 8.58937198,6.21095008 9.3784219,7.22544283 L9.3784219,6.19967794 C9.3784219,6.00805153 9.52495974,5.86151369 9.71658615,5.86151369 L11.5539452,5.86151369 C11.7455717,5.86151369 11.8921095,6.00805153 11.8921095,6.19967794 L11.8921095,17.0434783 C11.8921095,17.2238325 11.7455717,17.3703704 11.5539452,17.3703704 Z M2.58132045,11.6215781 C2.58132045,13.6392915 3.88888889,15.3075684 6.0531401,15.3075684 C8.13848631,15.3075684 9.52495974,13.7181965 9.52495974,11.6215781 C9.52495974,9.5136876 8.12721417,7.93558776 6.0531401,7.93558776 C3.90016103,7.92431562 2.58132045,9.59259259 2.58132045,11.6215781 Z" id="Shape"></path>
                    <path d="M26.2753623,11.6215781 C26.2753623,15.1497585 23.7391304,17.6859903 20.5152979,17.6859903 C18.8808374,17.6859903 17.6972625,17.020934 16.9082126,16.0177134 L16.9082126,21.8566828 C16.9082126,22.0483092 16.7616747,22.194847 16.5700483,22.194847 L14.7326892,22.194847 C14.5410628,22.194847 14.394525,22.0483092 14.394525,21.8566828 L14.394525,6.19967794 C14.394525,6.00805153 14.5410628,5.86151369 14.7326892,5.86151369 L16.5700483,5.86151369 C16.7616747,5.86151369 16.9082126,6.00805153 16.9082126,6.19967794 L16.9082126,7.23671498 C17.6972625,6.22222222 18.8808374,5.568438 20.5152979,5.568438 C23.7391304,5.55716586 26.2753623,8.09339775 26.2753623,11.6215781 Z M16.7391304,11.6215781 C16.7391304,13.7294686 18.136876,15.3075684 20.2109501,15.3075684 C22.3752013,15.3075684 23.6827697,13.6392915 23.6827697,11.6215781 C23.6827697,9.60386473 22.3752013,7.93558776 20.2109501,7.93558776 C18.136876,7.92431562 16.7391304,9.5136876 16.7391304,11.6215781 Z" id="Shape"></path>
                    <path d="M35.6425121,6.17713366 L35.2028986,7.98067633 C35.15781,8.18357488 34.9436393,8.28502415 34.7520129,8.2173913 C34.2673108,8.03703704 33.6811594,7.9468599 33.1964573,7.9468599 C31.5958132,7.9468599 30.4573269,9.07407407 30.4573269,11.0354267 L30.4573269,17.0322061 C30.4573269,17.2238325 30.310789,17.3703704 30.1191626,17.3703704 L28.2818035,17.3703704 C28.0901771,17.3703704 27.9436393,17.2238325 27.9436393,17.0322061 L27.9436393,6.19967794 C27.9436393,6.00805153 28.0901771,5.86151369 28.2818035,5.86151369 L30.0966184,5.86151369 C30.2882448,5.86151369 30.4347826,6.00805153 30.4347826,6.19967794 L30.4347826,7.15780998 C31.1900161,6.06441224 32.373591,5.55716586 33.7826087,5.55716586 C34.4138486,5.55716586 34.9323671,5.62479871 35.4170692,5.77133655 C35.5748792,5.82769726 35.6763285,6.00805153 35.6425121,6.17713366 Z" id="Shape"></path>
                    <path d="M39.8582931,1.88244767 C39.8582931,2.88566828 39.0805153,3.64090177 38.0772947,3.64090177 C37.0740741,3.64090177 36.3188406,2.88566828 36.3188406,1.88244767 C36.3188406,0.879227053 37.0740741,0.101449275 38.0772947,0.101449275 C39.0805153,0.101449275 39.8582931,0.879227053 39.8582931,1.88244767 Z M39.0128824,17.3703704 L37.1642512,17.3703704 C36.9726248,17.3703704 36.826087,17.2238325 36.826087,17.0322061 L36.826087,6.19967794 C36.826087,6.00805153 36.9726248,5.86151369 37.1642512,5.86151369 L39.0128824,5.86151369 C39.2045089,5.86151369 39.3510467,6.00805153 39.3510467,6.19967794 L39.3510467,17.0434783 C39.3510467,17.2238325 39.2045089,17.3703704 39.0128824,17.3703704 Z" id="Shape"></path>
                    <path d="M44.0402576,17.3703704 L42.1916264,17.3703704 C42,17.3703704 41.8534622,17.2238325 41.8534622,17.0322061 L41.8534622,0.405797101 C41.8534622,0.214170692 42,0.0676328502 42.1916264,0.0676328502 L44.0402576,0.0676328502 C44.2318841,0.0676328502 44.3784219,0.214170692 44.3784219,0.405797101 L44.3784219,17.0434783 C44.3784219,17.2238325 44.2318841,17.3703704 44.0402576,17.3703704 Z" id="Shape"></path>
                    <path d="M57.6006441,17.3703704 L55.763285,17.3703704 C55.5716586,17.3703704 55.4251208,17.2238325 55.4251208,17.0322061 L55.4251208,15.9838969 C54.6360709,17.0096618 53.4412238,17.6634461 51.8067633,17.6634461 C48.5829308,17.6634461 46.0466989,15.1272142 46.0466989,11.5990338 C46.0466989,8.07085346 48.5829308,5.53462158 51.8067633,5.53462158 C53.4412238,5.53462158 54.6360709,6.21095008 55.4251208,7.22544283 L55.4251208,6.19967794 C55.4251208,6.00805153 55.5716586,5.86151369 55.763285,5.86151369 L57.6006441,5.86151369 C57.7922705,5.86151369 57.9388084,6.00805153 57.9388084,6.19967794 L57.9388084,17.0434783 C57.9388084,17.2238325 57.7922705,17.3703704 57.6006441,17.3703704 Z M48.6392915,11.6215781 C48.6392915,13.6392915 49.9468599,15.3075684 52.1111111,15.3075684 C54.1964573,15.3075684 55.5829308,13.7181965 55.5829308,11.6215781 C55.5829308,9.5136876 54.1851852,7.93558776 52.1111111,7.93558776 C49.9468599,7.92431562 48.6392915,9.59259259 48.6392915,11.6215781 Z" id="Shape"></path>
                </g>
                <circle id="Oval" fill="#FF7E69" cx="4.99355878" cy="16.389694" r="4.8921095"></circle>
                <path d="M8.36392915,0.867954911 C6.4589372,2.20933977 6.00805153,4.82447665 7.34943639,6.7294686 L8.51046699,8.38647343 L16.3333333,19.5008052 C17.6747182,21.4057971 20.2898551,21.8566828 22.194847,20.5152979 C24.099839,19.173913 24.5507246,16.5587762 23.2093398,14.6537842 L14.2254428,1.88244767 C12.884058,-0.0112721417 10.257649,-0.473429952 8.36392915,0.867954911 Z" id="Shape" fill="#3B2C7C"></path>
                <path d="M101.178744,15.2286634 C101.178744,18.7568438 98.6425121,21.2930757 95.4186795,21.2930757 C93.784219,21.2930757 92.6006441,20.6280193 91.8115942,19.6247987 L91.8115942,20.6618357 C91.8115942,20.8534622 91.6650564,21 91.47343,21 L89.6360709,21 C89.4444444,21 89.2979066,20.8534622 89.2979066,20.6618357 L89.2979066,4.01288245 C89.2979066,3.82125604 89.4444444,3.6747182 89.6360709,3.6747182 L91.47343,3.6747182 C91.6650564,3.6747182 91.8115942,3.82125604 91.8115942,4.01288245 L91.8115942,10.8438003 C92.6006441,9.82930757 93.784219,9.17552335 95.4186795,9.17552335 C98.6425121,9.16425121 101.178744,11.7004831 101.178744,15.2286634 Z M91.6425121,15.2286634 C91.6425121,17.3365539 93.0402576,18.9146538 95.1143317,18.9146538 C97.2785829,18.9146538 98.5861514,17.2463768 98.5861514,15.2286634 C98.5861514,13.2109501 97.2785829,11.5426731 95.1143317,11.5426731 C93.0402576,11.531401 91.6425121,13.1207729 91.6425121,15.2286634 Z" id="Shape" fill="#FF7E69"></path>
                <path d="M113.837359,20.9774557 L112,20.9774557 C111.808374,20.9774557 111.661836,20.8309179 111.661836,20.6392915 L111.661836,19.5909823 C110.872786,20.6167472 109.677939,21.2705314 108.043478,21.2705314 C104.819646,21.2705314 102.283414,18.7342995 102.283414,15.2061192 C102.283414,11.6779388 104.819646,9.14170692 108.043478,9.14170692 C109.677939,9.14170692 110.872786,9.81803543 111.661836,10.8325282 L111.661836,9.80676329 C111.661836,9.61513688 111.808374,9.46859903 112,9.46859903 L113.837359,9.46859903 C114.028986,9.46859903 114.175523,9.61513688 114.175523,9.80676329 L114.175523,20.6505636 C114.175523,20.8309179 114.028986,20.9774557 113.837359,20.9774557 Z M104.876006,15.2286634 C104.876006,17.2463768 106.183575,18.9146538 108.347826,18.9146538 C110.433172,18.9146538 111.819646,17.3252818 111.819646,15.2286634 C111.819646,13.1207729 110.4219,11.5426731 108.347826,11.5426731 C106.183575,11.531401 104.876006,13.1996779 104.876006,15.2286634 Z" id="Shape" fill="#FF7E69"></path>
                <path d="M127.386473,13.7407407 L127.386473,20.6392915 C127.386473,20.8309179 127.239936,20.9774557 127.048309,20.9774557 L125.199678,20.9774557 C125.008052,20.9774557 124.861514,20.8309179 124.861514,20.6392915 L124.861514,14.5748792 C124.861514,12.6360709 123.858293,11.5539452 122.178744,11.5539452 C120.555556,11.5539452 119.191626,12.6247987 119.191626,14.5974235 L119.191626,20.6392915 C119.191626,20.8309179 119.045089,20.9774557 118.853462,20.9774557 L117.004831,20.9774557 C116.813205,20.9774557 116.666667,20.8309179 116.666667,20.6392915 L116.666667,9.80676329 C116.666667,9.61513688 116.813205,9.46859903 117.004831,9.46859903 L118.830918,9.46859903 C119.022544,9.46859903 119.169082,9.61513688 119.169082,9.80676329 L119.169082,10.8776167 C120.093398,9.5136876 121.52496,9.17552335 122.708535,9.17552335 C125.458937,9.16425121 127.386473,11.0466989 127.386473,13.7407407 Z" id="Shape" fill="#FF7E69"></path>
                <path d="M132.075684,13.84219 L133.338164,13.84219 L137.035427,9.58132045 C137.10306,9.50241546 137.193237,9.46859903 137.294686,9.46859903 L139.549114,9.46859903 C139.84219,9.46859903 140,9.81803543 139.797101,10.0322061 L135.479871,14.8904992 L139.909823,20.4363929 C140.090177,20.6618357 139.932367,20.9887279 139.650564,20.9887279 L137.328502,20.9887279 C137.227053,20.9887279 137.125604,20.9436393 137.057971,20.8647343 L133.326892,16.1417069 L132.075684,16.1417069 L132.075684,20.6618357 C132.075684,20.8534622 131.929147,21 131.73752,21 L129.888889,21 C129.697262,21 129.550725,20.8534622 129.550725,20.6618357 L129.550725,4.01288245 C129.550725,3.82125604 129.697262,3.6747182 129.888889,3.6747182 L131.73752,3.6747182 C131.929147,3.6747182 132.075684,3.82125604 132.075684,4.01288245 L132.075684,13.84219 Z" id="Shape" fill="#FF7E69"></path>
            </g>
        </g>
    </g>
</svg>
